themes/red/desktop/down.svg

<svg height="48" width="48" xmlns="http://www.w3.org/2000/svg">
  <path d="m0 0v10l24 23 24-23v-10l-24 23-24-23v10" fill="#a0a0a0"/>
  <path d="m0 15v10l24 23 24-23v-10l-24 23-24-23v10" fill="#a0a0a0"/>
</svg>

<?xml version="1.0" encoding="UTF-8" standalone="no"?>
<!-- Created with Inkscape (http://www.inkscape.org/) -->

<svg
   xmlns:dc="http://purl.org/dc/elements/1.1/"
   xmlns:cc="http://creativecommons.org/ns#"
   xmlns:rdf="http://www.w3.org/1999/02/22-rdf-syntax-ns#"
   xmlns:svg="http://www.w3.org/2000/svg"
   xmlns="http://www.w3.org/2000/svg"
   xmlns:sodipodi="http://sodipodi.sourceforge.net/DTD/sodipodi-0.dtd"
   xmlns:inkscape="http://www.inkscape.org/namespaces/inkscape"
   width="48px"
   height="48px"
   id="svg2988"
   version="1.1"
   inkscape:version="0.48.4 r9939"
   sodipodi:docname="up.svg">
  <defs
     id="defs2990" />
  <sodipodi:namedview
     id="base"
     pagecolor="#ffffff"
     bordercolor="#666666"
     borderopacity="1.0"
     inkscape:pageopacity="0.0"
     inkscape:pageshadow="2"
     inkscape:zoom="14"
     inkscape:cx="17.412242"
     inkscape:cy="24.080622"
     inkscape:current-layer="layer1"
     showgrid="true"
     inkscape:grid-bbox="true"
     inkscape:document-units="px"
     inkscape:window-width="1912"
     inkscape:window-height="1022"
     inkscape:window-x="0"
     inkscape:window-y="0"
     inkscape:window-maximized="1">
    <inkscape:grid
       type="xygrid"
       id="grid2996" />
  </sodipodi:namedview>
  <metadata
     id="metadata2993">
    <rdf:RDF>
      <cc:Work
         rdf:about="">
        <dc:format>image/svg+xml</dc:format>
        <dc:type
           rdf:resource="http://purl.org/dc/dcmitype/StillImage" />
        <dc:title></dc:title>
      </cc:Work>
    </rdf:RDF>
  </metadata>
  <g
     id="layer1"
     inkscape:label="Layer 1"
     inkscape:groupmode="layer">
    <path
       style="fill:#a0a0a0;fill-opacity:1;stroke:none"
       d="M 0,0 0,10 24,33 48,10 48,0 24,23 0,0 0,10"
       id="path3787"
       inkscape:connector-curvature="0"
       sodipodi:nodetypes="cccccccc" />
    <path
       style="fill:#a0a0a0;fill-opacity:1;stroke:none"
       d="M 0,15 0,25 24,48 48,25 48,15 24,38 0,15 0,25"
       id="path3787-3"
       inkscape:connector-curvature="0"
       sodipodi:nodetypes="cccccccc" />
  </g>
</svg>
